X: 1700
T: Max's Waltz
B: australian traditional tunes wiki
M:3/4
L:1/8
R: Waltz
Q: 1/4=100
K:C
V:1 
D2|"C"E4D2|E4F2|G3^FGc|E4E2|"G7"F3EFA|D4F2|"C"E3DEG|C4D2|
E4D2|E4F2|G3^FGc|E4E2|"G7"F4A2|B,4D2|"C"C6-|C3GAB|
c4c2|"G7"B4A2|"C"G3^FGc|E4E2|"G7"F3EFA|D4D2|"C"E3DEG|C4G2|
c4c2|"G7"B4A2|"C"G3^FGc|E4E2|"G7"F3EFA|B,4D2|"C"C6-|C4||
% abcbook-tune_id 6342d53a4e7172f8496988f1


% abcbook-boost 0
% abcbook-tablature 
% abcbook-transpose 
% abcbook-lastupdated 1665324378797
% abcbook-soundfonts 
% abcbook-repeats 1
% NFF Book 2020
% Bush Traditions recording played by Ingrid Wangel

